X: 064
T: Tristam Shandy
B: 204 Favourite Country Dances
N: Published by Straight & Skillern, London ca.1775
F: http://imslp.org/wiki/204_Favourite_Country_Dances_(Various) p.32 #64
Z: 2014 John Chambers <jc:trillian.mit.edu>
M: 2/4
L: 1/8
K: A
%  - - - - - - - - - - - - - - - - - - - - - - - - -
AB |\
cAAf | fedc | dcBA | BEEB |\
cAAf | feae | cAEG | A2 :|
|: ED |\
CEAc | ecae | cAEC | DB,B,E |\
CEAc | ecae | cAEG | A2 :|
%  - - - - - - - - - - - - - - - - - - - - - - - - -
%%begintext align
%% Hands across & back again cross
%% over 1 Cu. Right & Left at top
%%endtext

%%sep 1 1 500
%%sep 1 1 500
